X: 18
T:VOYEZ VOUS CE PETIT GAMIN
M:3/4
L:1/8
Q:120
C:trad. Bresse/Jura
R:mazurka
K:C
GG|c2 cd ed|c2 cc Bc|1 d2 dd cd|e2c2:|2 d2df ed|c4|:g2|a2 gf ef|g2 fe de
|1 f2 ed cd|e2 c2:|2 f2 ed Bd|c4||
